X:1
T: Green Garters
C:
R:Reel
Q: 232
K:D
M:4/4
L:1/8
d2 fd Ad fd|d2 fa ge ce|d2 fd Ad fd|ed cd ef ge|
d2 fd Ad fd|d2 fa ge ce|d2 fd Ad fa|ge cd ed d2|
|:ag fg af df|a2 fd ef ge|ag fg af df|ed cd ef ge|
ag fg af df|a2 fd ef ge|af ge fd ec|AB cd ef ge:|
d2 fd Ad fd|d2 fa ge ce|d2 fd Ad fd|ed cd ef ge|
d2 fd Ad fd|d2 fa ge ce|d2 fd Ad fa|ge cd ed d2||
